X: 1
T: Farewell To Ireland
M: 4/4
L: 1/8
R: reel
K: Dmaj
D2 (3FED FA~A2|fedf edBc|dBAF G2GB|AGFD EDEA|
D2 (3FED FA~A2|fedf edBc|dBAF G2GB|1 AGFD EDDA,:|2 AGFE EDDA||
|:defg ~a3f|g2fg eA (3cBA|defg afdf|gefd eAef|
defg ~a3f|g2fg eABc|dBAF G2GB|1 AGFD EDDA:|2 AGFD EDDA,||
